static/img/site/blog-2.svg

<svg width="373" height="184" viewBox="0 0 373 184" fill="none" xmlns="http://www.w3.org/2000/svg">
<path d="M0.25 24C0.25 10.7452 10.9952 0 24.25 0H348.25C361.505 0 372.25 10.7452 372.25 24V160C372.25 173.255 361.505 184 348.25 184H24.25C10.9952 184 0.25 173.255 0.25 160V24Z" fill="#E5F6FF"/>
<path d="M205.501 91.627L213.348 83.7765C214.665 82.4941 215.713 80.9631 216.433 79.2722C217.154 77.5812 217.531 75.7641 217.543 73.9263C217.555 72.0885 217.202 70.2666 216.504 68.5663C215.806 66.8661 214.778 65.3213 213.478 64.0218C212.179 62.7222 210.634 61.6937 208.934 60.996C207.233 60.2983 205.411 59.9452 203.574 59.9573C201.736 59.9694 199.919 60.3465 198.228 61.0665C196.537 61.7866 195.006 62.8353 193.724 64.1519L185.873 71.9992L178.023 64.1519C176.74 62.8353 175.209 61.7866 173.518 61.0665C171.827 60.3465 170.01 59.9694 168.172 59.9573C166.335 59.9452 164.513 60.2983 162.812 60.996C161.112 61.6937 159.567 62.7222 158.268 64.0218C156.968 65.3213 155.94 66.8661 155.242 68.5663C154.544 70.2666 154.191 72.0885 154.203 73.9263C154.216 75.7641 154.593 77.5812 155.313 79.2722C156.033 80.9631 157.081 82.4941 158.398 83.7765L166.245 91.627L158.398 99.4774C157.081 100.76 156.033 102.291 155.313 103.982C154.593 105.673 154.216 107.49 154.203 109.328C154.191 111.165 154.544 112.987 155.242 114.688C155.94 116.388 156.968 117.933 158.268 119.232C159.567 120.532 161.112 121.56 162.812 122.258C164.513 122.956 166.335 123.309 168.172 123.297C170.01 123.284 171.827 122.907 173.518 122.187C175.209 121.467 176.74 120.419 178.023 119.102L185.873 111.255L193.724 119.102C195.006 120.419 196.537 121.467 198.228 122.187C199.919 122.907 201.736 123.284 203.574 123.297C205.411 123.309 207.233 122.956 208.934 122.258C210.634 121.56 212.179 120.532 213.478 119.232C214.778 117.933 215.806 116.388 216.504 114.688C217.202 112.987 217.555 111.165 217.543 109.328C217.531 107.49 217.154 105.673 216.433 103.982C215.713 102.291 214.665 100.76 213.348 99.4774L205.501 91.627ZM199.076 69.5043C199.658 68.9018 200.354 68.4213 201.124 68.0907C201.893 67.7601 202.721 67.586 203.559 67.5788C204.396 67.5715 205.227 67.7311 206.002 68.0483C206.777 68.3654 207.482 68.8338 208.074 69.4261C208.666 70.0184 209.135 70.7227 209.452 71.498C209.769 72.2732 209.929 73.1039 209.921 73.9415C209.914 74.7791 209.74 75.6068 209.409 76.3764C209.079 77.146 208.598 77.8421 207.996 78.424L200.145 86.265L191.235 77.3548L199.076 69.5043ZM194.793 91.627L185.873 100.547L176.953 91.627L185.873 82.7072L194.793 91.627ZM163.75 78.424C163.148 77.8421 162.667 77.146 162.337 76.3764C162.006 75.6068 161.832 74.7791 161.825 73.9415C161.818 73.1039 161.977 72.2732 162.294 71.498C162.612 70.7227 163.08 70.0184 163.672 69.4261C164.265 68.8338 164.969 68.3654 165.744 68.0483C166.519 67.7311 167.35 67.5715 168.188 67.5788C169.025 67.586 169.853 67.7601 170.623 68.0907C171.392 68.4213 172.088 68.9018 172.67 69.5043L180.511 77.3548L171.601 86.265L163.75 78.424ZM172.67 113.75C172.088 114.352 171.392 114.833 170.623 115.163C169.853 115.494 169.025 115.668 168.188 115.675C167.35 115.682 166.519 115.523 165.744 115.206C164.969 114.888 164.265 114.42 163.672 113.828C163.08 113.235 162.612 112.531 162.294 111.756C161.977 110.981 161.818 110.15 161.825 109.312C161.832 108.475 162.006 107.647 162.337 106.877C162.667 106.108 163.148 105.412 163.75 104.83L171.601 96.9889L180.511 105.899L172.67 113.75ZM207.996 113.75C206.813 114.932 205.209 115.597 203.536 115.597C201.863 115.597 200.259 114.932 199.076 113.75L191.235 105.899L200.145 96.9889L207.996 104.839C209.178 106.022 209.843 107.627 209.843 109.299C209.843 110.972 209.178 112.576 207.996 113.759V113.75Z" fill="#009FEE"/>
</svg>

<svg xmlns="http://www.w3.org/2000/svg" width="373" height="184" fill="none" viewBox="0 0 373 184"><path fill="#e5f6ff" d="M.25 24c0-13.255 10.745-24 24-24h324c13.255 0 24 10.745 24 24v136c0 13.255-10.745 24-24 24h-324c-13.255 0-24-10.745-24-24z"/><path fill="#009fee" d="m205.501 91.627 7.847-7.85a13.87 13.87 0 0 0 4.195-9.85 13.875 13.875 0 0 0-8.609-12.931 13.88 13.88 0 0 0-10.706.07 13.9 13.9 0 0 0-4.504 3.086l-7.851 7.847-7.85-7.847a13.89 13.89 0 0 0-9.851-4.195 13.88 13.88 0 0 0-9.904 4.065 13.876 13.876 0 0 0 .13 19.754l7.847 7.851-7.847 7.85a13.87 13.87 0 0 0-4.195 9.851 13.88 13.88 0 0 0 13.969 13.969 13.9 13.9 0 0 0 9.851-4.195l7.85-7.847 7.851 7.847a13.897 13.897 0 0 0 9.85 4.195 13.88 13.88 0 0 0 13.969-13.969 13.872 13.872 0 0 0-4.195-9.85zm-6.425-22.123a6.306 6.306 0 0 1 8.998-.078 6.31 6.31 0 0 1-.078 8.998l-7.851 7.841-8.91-8.91zm-4.283 22.123-8.92 8.92-8.92-8.92 8.92-8.92zM163.75 78.424a6.3 6.3 0 0 1-1.925-4.483 6.32 6.32 0 0 1 1.847-4.515 6.32 6.32 0 0 1 4.516-1.847 6.3 6.3 0 0 1 4.482 1.925l7.841 7.85-8.91 8.911zm8.92 35.326a6.31 6.31 0 0 1-10.333-6.873 6.3 6.3 0 0 1 1.413-2.047l7.851-7.841 8.91 8.91zm35.326 0a6.31 6.31 0 0 1-8.92 0l-7.841-7.851 8.91-8.91 7.851 7.85a6.31 6.31 0 0 1 0 8.92z"/></svg>
